X:1
T:Cary Owen (sic)
M:6/8
L:1/8
R:Jig
S:Gow - 2nd Repository  (1802)
Z:AK/Fiddler's Companion
K:F
f|~fcB ~AGF|A>BA A2f|~fcB ~AGF|GAG G2f|
~fcB ~AGF|ABA A2d|c>de f2A|GAG G2:|
A/B/|(A/B/c)A ~c2A|c2A c2f|d2B d2B|d2B d2e|f2g {fg}a2g|f2d c2A|
cde f2A|GAG G2 A/B/|{AB}c2A {AB}c2A|{AB}c2A c2f|d2B d2B|
d2B d2e|f2g {fg}a2g|f2d c2A|cde f2A|GAG G2||
